Site26/img/svg/footer__sublogo.svg

<svg width="204" height="9" viewBox="0 0 204 9" fill="none" xmlns="http://www.w3.org/2000/svg">
<path d="M6.29975 1.488C6.45375 1.488 6.57475 1.422 6.65175 1.29C6.69575 1.224 6.71775 1.158 6.71775 1.081C6.71775 0.938 6.64075 0.806 6.48675 0.706999C5.92575 0.366 5.24375 0.19 4.46275 0.19C3.28575 0.19 2.36175 0.563999 1.66875 1.312C0.975753 2.071 0.623753 3.017 0.623753 4.15C0.623753 5.349 0.986753 6.306 1.71275 7.021C2.42775 7.747 3.37375 8.11 4.52875 8.11C5.36475 8.11 6.07975 7.901 6.68475 7.472C6.82775 7.373 6.89375 7.241 6.89375 7.098C6.89375 7.01 6.87175 6.933 6.81675 6.878C6.73975 6.779 6.62975 6.724 6.48675 6.724C6.38775 6.724 6.28875 6.746 6.21175 6.801C5.73875 7.087 5.21075 7.23 4.61675 7.23C3.72575 7.23 2.99975 6.944 2.44975 6.372C1.88875 5.811 1.61375 5.063 1.61375 4.15C1.61375 3.237 1.87775 2.5 2.41675 1.928C2.95575 1.356 3.63775 1.07 4.47375 1.07C5.07875 1.07 5.60675 1.191 6.03575 1.422C6.12375 1.466 6.21175 1.488 6.29975 1.488ZM19.6371 7.648C19.6371 7.538 19.5931 7.428 19.5161 7.329L17.4701 4.744C17.9321 4.623 18.3281 4.37 18.6581 3.985C18.9771 3.6 19.1421 3.127 19.1421 2.566C19.1421 1.037 18.2291 0.278 16.4031 0.278C16.1061 0.278 15.5781 0.289 14.7971 0.299999C14.5441 0.299999 14.3351 0.508999 14.3351 0.761999V7.615C14.3351 7.868 14.5441 8.077 14.8081 8.077C15.0611 8.077 15.2701 7.868 15.2701 7.615V4.92H16.5241L18.7351 7.813C18.8781 7.989 19.0321 8.077 19.2081 8.077C19.4611 8.077 19.6371 7.879 19.6371 7.648ZM15.2701 1.18C15.7541 1.169 16.1171 1.158 16.3481 1.158C17.5471 1.158 18.1521 1.631 18.1521 2.577C18.1521 3.017 17.9761 3.369 17.6351 3.633C17.2831 3.908 16.8761 4.04 16.4031 4.04H15.2701V1.18ZM28.1616 4.546H30.8126C31.0436 4.546 31.2416 4.337 31.2416 4.106C31.2416 3.875 31.0436 3.666 30.8126 3.666H28.1616V1.18H31.1426C31.3736 1.18 31.5716 0.970999 31.5716 0.74C31.5716 0.508999 31.3736 0.299999 31.1426 0.299999H27.6886C27.4356 0.299999 27.2266 0.508999 27.2266 0.761999V7.538C27.2266 7.791 27.4356 8 27.6886 8H31.2526C31.4836 8 31.6816 7.791 31.6816 7.56C31.6816 7.329 31.4836 7.12 31.2526 7.12H28.1616V4.546ZM44.7847 7.769C44.8727 7.978 45.0157 8.077 45.2247 8.077C45.4997 8.077 45.6757 7.857 45.6757 7.604C45.6757 7.549 45.6647 7.483 45.6427 7.417L42.7057 0.619C42.6067 0.366 42.4307 0.245 42.1777 0.245C41.9247 0.245 41.7487 0.366 41.6387 0.619L38.6907 7.45C38.6577 7.538 38.6467 7.604 38.6467 7.648C38.6467 7.879 38.8117 8.077 39.0867 8.077C39.2847 8.077 39.4277 7.978 39.5047 7.769L40.3847 5.668H43.8937L44.7847 7.769ZM40.7587 4.788L42.1447 1.499L43.5307 4.788H40.7587ZM57.1623 1.18C57.3933 1.18 57.5913 0.970999 57.5913 0.74C57.5913 0.508999 57.3933 0.299999 57.1623 0.299999H51.6953C51.4643 0.299999 51.2663 0.508999 51.2663 0.74C51.2663 0.970999 51.4643 1.18 51.6953 1.18H53.9613V7.615C53.9613 7.868 54.1703 8.077 54.4343 8.077C54.6873 8.077 54.8963 7.868 54.8963 7.615V1.18H57.1623ZM65.7833 4.546H68.4343C68.6653 4.546 68.8633 4.337 68.8633 4.106C68.8633 3.875 68.6653 3.666 68.4343 3.666H65.7833V1.18H68.7643C68.9953 1.18 69.1933 0.970999 69.1933 0.74C69.1933 0.508999 68.9953 0.299999 68.7643 0.299999H65.3103C65.0573 0.299999 64.8483 0.508999 64.8483 0.761999V7.538C64.8483 7.791 65.0573 8 65.3103 8H68.8743C69.1053 8 69.3033 7.791 69.3033 7.56C69.3033 7.329 69.1053 7.12 68.8743 7.12H65.7833V4.546ZM77.1704 7.538C77.1704 7.791 77.3794 8 77.6324 8C78.4244 8.011 78.9414 8.022 79.1834 8.022C80.5914 8.022 81.6804 7.648 82.4504 6.9C83.2094 6.152 83.5944 5.206 83.5944 4.051C83.5944 2.027 82.3514 0.267 79.2714 0.267C79.2604 0.267 78.7104 0.278 77.6324 0.299999C77.3684 0.299999 77.1704 0.508999 77.1704 0.761999V7.538ZM78.1054 1.18C78.4024 1.18 78.8754 1.147 79.2494 1.147C80.3274 1.147 81.1524 1.411 81.7354 1.95C82.3184 2.489 82.6044 3.182 82.6044 4.051C82.6044 4.975 82.3074 5.723 81.7134 6.284C81.1194 6.856 80.2834 7.142 79.2164 7.142C79.1504 7.142 78.7764 7.131 78.1054 7.12V1.18ZM101.875 0.267C101.721 0.267 101.171 0.278 100.225 0.299999C99.972 0.299999 99.763 0.52 99.763 0.773V7.538C99.763 7.791 99.972 8 100.225 8.011C100.852 8.022 101.391 8.033 101.831 8.033C103.514 8.033 104.625 7.296 104.625 5.8C104.625 4.777 104.009 4.139 103.03 3.963C103.822 3.688 104.35 3.094 104.35 2.17C104.35 1.015 103.602 0.267 101.875 0.267ZM101.941 4.491C103.052 4.491 103.69 4.942 103.69 5.745C103.69 6.669 103.041 7.153 101.886 7.153C101.435 7.153 101.039 7.142 100.698 7.109V4.491H101.941ZM100.698 1.18C101.248 1.158 101.633 1.147 101.853 1.147C102.898 1.147 103.415 1.554 103.415 2.379C103.415 3.182 102.777 3.666 101.93 3.666H100.698V1.18ZM111.7 0.696C111.7 0.795 111.722 0.883 111.777 0.96L114.109 4.7V7.615C114.109 7.868 114.318 8.077 114.582 8.077C114.835 8.077 115.044 7.868 115.044 7.615V4.7L117.431 0.894C117.486 0.806 117.508 0.717999 117.508 0.641C117.508 0.421 117.354 0.245 117.09 0.245C116.903 0.245 116.749 0.354999 116.606 0.586L114.615 3.82L112.635 0.586C112.503 0.354999 112.349 0.245 112.173 0.245C111.898 0.245 111.7 0.443 111.7 0.696ZM137.018 4.788C137.249 4.788 137.447 4.579 137.447 4.348C137.447 4.117 137.249 3.908 137.018 3.908H134.367V1.18H137.348C137.579 1.18 137.777 0.970999 137.777 0.74C137.777 0.508999 137.579 0.299999 137.348 0.299999H133.894C133.641 0.299999 133.432 0.508999 133.432 0.761999V7.615C133.432 7.868 133.641 8.077 133.905 8.077C134.158 8.077 134.367 7.868 134.367 7.615V4.788H137.018ZM150.184 7.769C150.272 7.978 150.415 8.077 150.624 8.077C150.899 8.077 151.075 7.857 151.075 7.604C151.075 7.549 151.064 7.483 151.042 7.417L148.105 0.619C148.006 0.366 147.83 0.245 147.577 0.245C147.324 0.245 147.148 0.366 147.038 0.619L144.09 7.45C144.057 7.538 144.046 7.604 144.046 7.648C144.046 7.879 144.211 8.077 144.486 8.077C144.684 8.077 144.827 7.978 144.904 7.769L145.784 5.668H149.293L150.184 7.769ZM146.158 4.788L147.544 1.499L148.93 4.788H146.158ZM160.585 0.267C160.431 0.267 159.881 0.278 158.935 0.299999C158.682 0.299999 158.473 0.52 158.473 0.773V7.538C158.473 7.791 158.682 8 158.935 8.011C159.562 8.022 160.101 8.033 160.541 8.033C162.224 8.033 163.335 7.296 163.335 5.8C163.335 4.777 162.719 4.139 161.74 3.963C162.532 3.688 163.06 3.094 163.06 2.17C163.06 1.015 162.312 0.267 160.585 0.267ZM160.651 4.491C161.762 4.491 162.4 4.942 162.4 5.745C162.4 6.669 161.751 7.153 160.596 7.153C160.145 7.153 159.749 7.142 159.408 7.109V4.491H160.651ZM159.408 1.18C159.958 1.158 160.343 1.147 160.563 1.147C161.608 1.147 162.125 1.554 162.125 2.379C162.125 3.182 161.487 3.666 160.64 3.666H159.408V1.18ZM172.082 0.696C172.082 0.443 171.873 0.245 171.62 0.245C171.356 0.245 171.147 0.443 171.147 0.696V4.711C171.147 5.8 171.444 6.636 172.027 7.219C172.61 7.802 173.38 8.099 174.337 8.099C175.195 8.099 175.91 7.824 176.471 7.274C177.032 6.724 177.318 5.899 177.318 4.788V0.696C177.318 0.443 177.109 0.245 176.856 0.245C176.592 0.245 176.383 0.443 176.383 0.696V4.601C176.383 6.317 175.624 7.219 174.337 7.219C172.896 7.219 172.082 6.218 172.082 4.535V0.696ZM186.448 0.696C186.448 0.443 186.239 0.245 185.986 0.245C185.722 0.245 185.513 0.443 185.513 0.696V7.538C185.513 7.791 185.722 8 185.975 8H189.814C190.045 8 190.243 7.791 190.243 7.56C190.243 7.329 190.045 7.12 189.814 7.12H186.448V0.696ZM202.792 7.769C202.88 7.978 203.023 8.077 203.232 8.077C203.507 8.077 203.683 7.857 203.683 7.604C203.683 7.549 203.672 7.483 203.65 7.417L200.713 0.619C200.614 0.366 200.438 0.245 200.185 0.245C199.932 0.245 199.756 0.366 199.646 0.619L196.698 7.45C196.665 7.538 196.654 7.604 196.654 7.648C196.654 7.879 196.819 8.077 197.094 8.077C197.292 8.077 197.435 7.978 197.512 7.769L198.392 5.668H201.901L202.792 7.769ZM198.766 4.788L200.152 1.499L201.538 4.788H198.766Z" fill="white"/>
</svg>

<svg width="204" height="9" fill="none" xmlns="http://www.w3.org/2000/svg">
  <path d="M6.2998 1.488c.154 0 .275-.066.352-.198.044-.066.066-.132.066-.209 0-.143-.077-.275-.231-.374C5.9257.366 5.2437.19 4.4627.19c-1.177 0-2.101.374-2.794 1.122-.693.759-1.045 1.705-1.045 2.838 0 1.199.363 2.156 1.089 2.871.715.726 1.661 1.089 2.816 1.089.836 0 1.551-.209 2.156-.638.143-.099.209-.231.209-.374 0-.088-.022-.165-.077-.22-.077-.099-.187-.154-.33-.154-.099 0-.198.022-.275.077-.473.286-1.001.429-1.595.429-.891 0-1.617-.286-2.167-.858-.561-.561-.836-1.309-.836-2.222s.264-1.65.803-2.222c.539-.572 1.221-.858 2.057-.858.605 0 1.133.121 1.562.352.088.044.176.066.264.066Zm13.3373 6.16c0-.11-.044-.22-.121-.319l-2.046-2.585c.462-.121.858-.374 1.188-.759.319-.385.484-.858.484-1.419 0-1.529-.913-2.288-2.739-2.288-.297 0-.825.011-1.606.022-.253 0-.462.209-.462.462v6.853c0 .253.209.462.473.462.253 0 .462-.209.462-.462V4.92h1.254l2.211 2.893c.143.176.297.264.473.264.253 0 .429-.198.429-.429Zm-4.367-6.468c.484-.011.847-.022 1.078-.022 1.199 0 1.804.473 1.804 1.419 0 .44-.176.792-.517 1.056-.352.275-.759.407-1.232.407h-1.133V1.18Zm12.8915 3.366h2.651c.231 0 .429-.209.429-.44s-.198-.44-.429-.44h-2.651V1.18h2.981c.231 0 .429-.209.429-.44s-.198-.44-.429-.44h-3.454c-.253 0-.462.209-.462.462v6.776c0 .253.209.462.462.462h3.564c.231 0 .429-.209.429-.44s-.198-.44-.429-.44h-3.091V4.546Zm16.6231 3.223c.088.209.231.308.44.308.275 0 .451-.22.451-.473 0-.055-.011-.121-.033-.187L42.7057.619c-.099-.253-.275-.374-.528-.374s-.429.121-.539.374l-2.948 6.831c-.033.088-.044.154-.044.198 0 .231.165.429.44.429.198 0 .341-.099.418-.308l.88-2.101h3.509l.891 2.101Zm-4.026-2.981 1.386-3.289 1.386 3.289h-2.772ZM57.1623 1.18c.231 0 .429-.209.429-.44s-.198-.44-.429-.44h-5.467c-.231 0-.429.209-.429.44s.198.44.429.44h2.266v6.435c0 .253.209.462.473.462.253 0 .462-.209.462-.462V1.18h2.266Zm8.621 3.366h2.651c.231 0 .429-.209.429-.44s-.198-.44-.429-.44h-2.651V1.18h2.981c.231 0 .429-.209.429-.44s-.198-.44-.429-.44h-3.454c-.253 0-.462.209-.462.462v6.776c0 .253.209.462.462.462h3.564c.231 0 .429-.209.429-.44s-.198-.44-.429-.44h-3.091V4.546Zm11.3871 2.992c0 .253.209.462.462.462.792.011 1.309.022 1.551.022 1.408 0 2.497-.374 3.267-1.122.759-.748 1.144-1.694 1.144-2.849 0-2.024-1.243-3.784-4.323-3.784-.011 0-.561.011-1.639.033-.264 0-.462.209-.462.462v6.776Zm.935-6.358c.297 0 .77-.033 1.144-.033 1.078 0 1.903.264 2.486.803.583.539.869 1.232.869 2.101 0 .924-.297 1.672-.891 2.233-.594.572-1.43.858-2.497.858-.066 0-.44-.011-1.111-.022V1.18ZM101.875.267c-.154 0-.704.011-1.65.033-.253 0-.462.22-.462.473v6.765c0 .253.209.462.462.473.627.011 1.166.022 1.606.022 1.683 0 2.794-.737 2.794-2.233 0-1.023-.616-1.661-1.595-1.837.792-.275 1.32-.869 1.32-1.793 0-1.155-.748-1.903-2.475-1.903Zm.066 4.224c1.111 0 1.749.451 1.749 1.254 0 .924-.649 1.408-1.804 1.408-.451 0-.847-.011-1.188-.044V4.491h1.243Zm-1.243-3.311c.55-.022.935-.033 1.155-.033 1.045 0 1.562.407 1.562 1.232 0 .803-.638 1.287-1.485 1.287h-1.232V1.18ZM111.7.696c0 .099.022.187.077.264l2.332 3.74v2.915c0 .253.209.462.473.462.253 0 .462-.209.462-.462V4.7l2.387-3.806c.055-.088.077-.176.077-.253 0-.22-.154-.396-.418-.396-.187 0-.341.11-.484.341l-1.991 3.234-1.98-3.234c-.132-.231-.286-.341-.462-.341-.275 0-.473.198-.473.451Zm25.318 4.092c.231 0 .429-.209.429-.44s-.198-.44-.429-.44h-2.651V1.18h2.981c.231 0 .429-.209.429-.44s-.198-.44-.429-.44h-3.454c-.253 0-.462.209-.462.462v6.853c0 .253.209.462.473.462.253 0 .462-.209.462-.462V4.788h2.651Zm13.166 2.981c.088.209.231.308.44.308.275 0 .451-.22.451-.473 0-.055-.011-.121-.033-.187L148.105.619c-.099-.253-.275-.374-.528-.374s-.429.121-.539.374L144.09 7.45c-.033.088-.044.154-.044.198 0 .231.165.429.44.429.198 0 .341-.099.418-.308l.88-2.101h3.509l.891 2.101Zm-4.026-2.981 1.386-3.289 1.386 3.289h-2.772ZM160.585.267c-.154 0-.704.011-1.65.033-.253 0-.462.22-.462.473v6.765c0 .253.209.462.462.473.627.011 1.166.022 1.606.022 1.683 0 2.794-.737 2.794-2.233 0-1.023-.616-1.661-1.595-1.837.792-.275 1.32-.869 1.32-1.793 0-1.155-.748-1.903-2.475-1.903Zm.066 4.224c1.111 0 1.749.451 1.749 1.254 0 .924-.649 1.408-1.804 1.408-.451 0-.847-.011-1.188-.044V4.491h1.243Zm-1.243-3.311c.55-.022.935-.033 1.155-.033 1.045 0 1.562.407 1.562 1.232 0 .803-.638 1.287-1.485 1.287h-1.232V1.18Zm12.674-.484c0-.253-.209-.451-.462-.451-.264 0-.473.198-.473.451v4.015c0 1.089.297 1.925.88 2.508s1.353.88 2.31.88c.858 0 1.573-.275 2.134-.825.561-.55.847-1.375.847-2.486V.696c0-.253-.209-.451-.462-.451-.264 0-.473.198-.473.451v3.905c0 1.716-.759 2.618-2.046 2.618-1.441 0-2.255-1.001-2.255-2.684V.696Zm14.366 0c0-.253-.209-.451-.462-.451-.264 0-.473.198-.473.451v6.842c0 .253.209.462.462.462h3.839c.231 0 .429-.209.429-.44s-.198-.44-.429-.44h-3.366V.696Zm16.344 7.073c.088.209.231.308.44.308.275 0 .451-.22.451-.473 0-.055-.011-.121-.033-.187L200.713.619c-.099-.253-.275-.374-.528-.374s-.429.121-.539.374l-2.948 6.831c-.033.088-.044.154-.044.198 0 .231.165.429.44.429.198 0 .341-.099.418-.308l.88-2.101h3.509l.891 2.101Zm-4.026-2.981 1.386-3.289 1.386 3.289h-2.772Z" fill="#fff"/>
</svg>
